X:213
T:The Golden Sunset Reel
R:reel
C:Bruce Osborne - Sept. 2002
Z:abc by bosborne@kos.net
M:2/4
L:1/8
K:Bb
F/E/|D/B,/D/F/ B/F/B/d/|f/B/g/B/ f/B/A/B/|c/F/d/F/ e/F/d/F/|c/B/A/G/ FF/E/|\
D/B,/D/F/ B/F/B/d/|f/B/g/B/ f/B/A/B/|c/F/d/F/ e/F/d/F/|c/B/A/c/ B:|
|:g|f/B/A/B/ F/B/A/B/|F/B/d/g/ fc/d/|e/c/A/c/ F/c/A/c/|B/A/B/c/ dg|\
f/B/A/B/ F/B/A/B/|F/B/d/g/ fc/d/|e/c/A/c/ F/c/A/c/|B/A/B/c/ B:|
